MEDIA/IMAGES/richard-baca-mixing-workstation-view-04.xmp
<x:xmpmeta xmlns:x="adobe:ns:meta/" x:xmptk="Adobe XMP Core 7.0-c000 1.000000, 0000/00/00-00:00:00        ">
 <rdf:RDF xmlns:rdf="http://www.w3.org/1999/02/22-rdf-syntax-ns#">
  <rdf:Description rdf:about=""
    xmlns:exif="http://ns.adobe.com/exif/1.0/"
    xmlns:tiff="http://ns.adobe.com/tiff/1.0/"
    xmlns:xmpMM="http://ns.adobe.com/xap/1.0/mm/"
    xmlns:stEvt="http://ns.adobe.com/xap/1.0/sType/ResourceEvent#"
    xmlns:dc="http://purl.org/dc/elements/1.1/"
    xmlns:crs="http://ns.adobe.com/camera-raw-settings/1.0/"
    xmlns:photoshop="http://ns.adobe.com/photoshop/1.0/"
    xmlns:xmp="http://ns.adobe.com/xap/1.0/"
   exif:ExifVersion="0231"
   exif:PixelXDimension="2000"
   exif:PixelYDimension="1345"
   tiff:Orientation="1"
   tiff:ImageWidth="2000"
   tiff:ImageLength="1345"
   xmpMM:DocumentID="400C86ABF0D1DADAF8469AF2C49602EA"
   xmpMM:OriginalDocumentID="400C86ABF0D1DADAF8469AF2C49602EA"
   xmpMM:InstanceID="xmp.iid:efc95ed7-036d-4465-8533-0208c1a199bd"
   dc:format="image/webp"
   crs:Version="18.4"
   crs:ProcessVersion="15.4"
   crs:WhiteBalance="Custom"
   crs:IncrementalTemperature="0"
   crs:IncrementalTint="-7"
   crs:Exposure2012="-0.04"
   crs:Contrast2012="-42"
   crs:Highlights2012="0"
   crs:Shadows2012="-15"
   crs:Whites2012="-44"
   crs:Blacks2012="+19"
   crs:Texture="+55"
   crs:Clarity2012="+45"
   crs:Dehaze="-14"
   crs:Vibrance="-11"
   crs:Saturation="+22"
   crs:ParametricShadows="0"
   crs:ParametricDarks="+2"
   crs:ParametricLights="+10"
   crs:ParametricHighlights="-28"
   crs:ParametricShadowSplit="25"
   crs:ParametricMidtoneSplit="50"
   crs:ParametricHighlightSplit="75"
   crs:Sharpness="22"
   crs:SharpenRadius="+1.0"
   crs:SharpenDetail="25"
   crs:SharpenEdgeMasking="0"
   crs:LuminanceSmoothing="6"
   crs:LuminanceNoiseReductionDetail="50"
   crs:LuminanceNoiseReductionContrast="0"
   crs:ColorNoiseReduction="15"
   crs:ColorNoiseReductionDetail="50"
   crs:ColorNoiseReductionSmoothness="50"
   crs:HueAdjustmentRed="+1"
   crs:HueAdjustmentOrange="-1"
   crs:HueAdjustmentYellow="-2"
   crs:HueAdjustmentGreen="+17"
   crs:HueAdjustmentAqua="-27"
   crs:HueAdjustmentBlue="-24"
   crs:HueAdjustmentPurple="+21"
   crs:HueAdjustmentMagenta="-17"
   crs:SaturationAdjustmentRed="-19"
   crs:SaturationAdjustmentOrange="-13"
   crs:SaturationAdjustmentYellow="-19"
   crs:SaturationAdjustmentGreen="-5"
   crs:SaturationAdjustmentAqua="-54"
   crs:SaturationAdjustmentBlue="+28"
   crs:SaturationAdjustmentPurple="-8"
   crs:SaturationAdjustmentMagenta="+15"
   crs:LuminanceAdjustmentRed="+18"
   crs:LuminanceAdjustmentOrange="+25"
   crs:LuminanceAdjustmentYellow="+35"
   crs:LuminanceAdjustmentGreen="+56"
   crs:LuminanceAdjustmentAqua="+9"
   crs:LuminanceAdjustmentBlue="+1"
   crs:LuminanceAdjustmentPurple="+15"
   crs:LuminanceAdjustmentMagenta="+25"
   crs:SplitToningShadowHue="104"
   crs:SplitToningShadowSaturation="19"
   crs:SplitToningHighlightHue="74"
   crs:SplitToningHighlightSaturation="19"
   crs:SplitToningBalance="+52"
   crs:ColorGradeMidtoneHue="236"
   crs:ColorGradeMidtoneSat="17"
   crs:ColorGradeShadowLum="+7"
   crs:ColorGradeMidtoneLum="+35"
   crs:ColorGradeHighlightLum="+14"
   crs:ColorGradeBlending="46"
   crs:ColorGradeGlobalHue="0"
   crs:ColorGradeGlobalSat="0"
   crs:ColorGradeGlobalLum="0"
   crs:AutoLateralCA="1"
   crs:LensProfileEnable="1"
   crs:LensManualDistortionAmount="0"
   crs:VignetteAmount="0"
   crs:DefringePurpleAmount="0"
   crs:DefringePurpleHueLo="30"
   crs:DefringePurpleHueHi="70"
   crs:DefringeGreenAmount="0"
   crs:DefringeGreenHueLo="40"
   crs:DefringeGreenHueHi="60"
   crs:PerspectiveUpright="0"
   crs:PerspectiveVertical="0"
   crs:PerspectiveHorizontal="0"
   crs:PerspectiveRotate="0.0"
   crs:PerspectiveAspect="0"
   crs:PerspectiveScale="100"
   crs:PerspectiveX="0.00"
   crs:PerspectiveY="0.00"
   crs:GrainAmount="0"
   crs:PostCropVignetteAmount="0"
   crs:ShadowTint="0"
   crs:RedHue="0"
   crs:RedSaturation="0"
   crs:GreenHue="0"
   crs:GreenSaturation="0"
   crs:BlueHue="0"
   crs:BlueSaturation="0"
   crs:HDREditMode="0"
   crs:CurveRefineSaturation="100"
   crs:ConvertToGrayscale="False"
   crs:OverrideLookVignette="False"
   crs:ToneCurveName2012="Custom"
   crs:CameraProfile="Embedded"
   crs:CameraProfileDigest="D6AF5AEA62557FCE88BC099788BBD3CC"
   crs:LensProfileSetup="Custom"
   crs:HasSettings="True"
   crs:HasCrop="False"
   crs:AlreadyApplied="False"
   photoshop:SidecarForExtension="WEBP"
   photoshop:EmbeddedXMPDigest="00000000000000000000000000000000"
   xmp:MetadataDate="2026-08-07T10:34-06:00">
   <xmpMM:History>
    <rdf:Seq>
     <rdf:li
      stEvt:action="saved"
      stEvt:instanceID="xmp.iid:efc95ed7-036d-4465-8533-0208c1a199bd"
      stEvt:when="2026-08-07T10:34-06:00"
      stEvt:softwareAgent="Adobe Lightroom 9.4.1 (Macintosh)"
      stEvt:changed="/metadata"/>
    </rdf:Seq>
   </xmpMM:History>
   <crs:ToneCurvePV2012>
    <rdf:Seq>
     <rdf:li>0, 0</rdf:li>
     <rdf:li>42, 48</rdf:li>
     <rdf:li>118, 126</rdf:li>
     <rdf:li>188, 200</rdf:li>
     <rdf:li>255, 255</rdf:li>
    </rdf:Seq>
   </crs:ToneCurvePV2012>
   <crs:ToneCurvePV2012Red>
    <rdf:Seq>
     <rdf:li>0, 24</rdf:li>
     <rdf:li>49, 45</rdf:li>
     <rdf:li>99, 89</rdf:li>
     <rdf:li>124, 123</rdf:li>
     <rdf:li>207, 216</rdf:li>
     <rdf:li>255, 255</rdf:li>
    </rdf:Seq>
   </crs:ToneCurvePV2012Red>
   <crs:ToneCurvePV2012Green>
    <rdf:Seq>
     <rdf:li>0, 17</rdf:li>
     <rdf:li>57, 53</rdf:li>
     <rdf:li>125, 121</rdf:li>
     <rdf:li>199, 198</rdf:li>
     <rdf:li>255, 255</rdf:li>
    </rdf:Seq>
   </crs:ToneCurvePV2012Green>
   <crs:ToneCurvePV2012Blue>
    <rdf:Seq>
     <rdf:li>0, 30</rdf:li>
     <rdf:li>51, 58</rdf:li>
     <rdf:li>70, 84</rdf:li>
     <rdf:li>91, 109</rdf:li>
     <rdf:li>171, 195</rdf:li>
     <rdf:li>255, 241</rdf:li>
    </rdf:Seq>
   </crs:ToneCurvePV2012Blue>
   <crs:PointColors>
    <rdf:Seq>
     <rdf:li>-1.000000, -1.000000, -1.000000, -1.000000, -1.000000, -1.000000, -1.000000, -1.000000, -1.000000, -1.000000, -1.000000, -1.000000, -1.000000, -1.000000, -1.000000, -1.000000, -1.000000, -1.000000, -1.000000</rdf:li>
    </rdf:Seq>
   </crs:PointColors>
   <crs:ColorVariance>
    <rdf:Seq>
     <rdf:li>-50.000000</rdf:li>
    </rdf:Seq>
   </crs:ColorVariance>
  </rdf:Description>
 </rdf:RDF>
</x:xmpmeta>
