MEDIA/IMAGES/studio-hallway-musician-mural-view-04.xmp
<x:xmpmeta xmlns:x="adobe:ns:meta/" x:xmptk="Adobe XMP Core 7.0-c000 1.000000, 0000/00/00-00:00:00        ">
 <rdf:RDF xmlns:rdf="http://www.w3.org/1999/02/22-rdf-syntax-ns#">
  <rdf:Description rdf:about=""
    xmlns:exif="http://ns.adobe.com/exif/1.0/"
    xmlns:tiff="http://ns.adobe.com/tiff/1.0/"
    xmlns:xmpMM="http://ns.adobe.com/xap/1.0/mm/"
    xmlns:stEvt="http://ns.adobe.com/xap/1.0/sType/ResourceEvent#"
    xmlns:dc="http://purl.org/dc/elements/1.1/"
    xmlns:crs="http://ns.adobe.com/camera-raw-settings/1.0/"
    xmlns:photoshop="http://ns.adobe.com/photoshop/1.0/"
    xmlns:xmp="http://ns.adobe.com/xap/1.0/"
   exif:ExifVersion="0231"
   exif:PixelXDimension="2000"
   exif:PixelYDimension="1345"
   tiff:Orientation="1"
   tiff:ImageWidth="2000"
   tiff:ImageLength="1345"
   xmpMM:DocumentID="44B2B9B2AADC24CECAC41F18C3522A30"
   xmpMM:OriginalDocumentID="44B2B9B2AADC24CECAC41F18C3522A30"
   xmpMM:InstanceID="xmp.iid:4c7cba5f-2414-4be7-943b-b830874d990c"
   dc:format="image/webp"
   crs:Version="18.4"
   crs:ProcessVersion="15.4"
   crs:WhiteBalance="Custom"
   crs:IncrementalTemperature="+10"
   crs:IncrementalTint="+10"
   crs:Exposure2012="-0.04"
   crs:Contrast2012="-36"
   crs:Highlights2012="-70"
   crs:Shadows2012="+63"
   crs:Whites2012="-70"
   crs:Blacks2012="+29"
   crs:Texture="+17"
   crs:Clarity2012="+33"
   crs:Dehaze="-9"
   crs:Vibrance="+22"
   crs:Saturation="-13"
   crs:ParametricShadows="0"
   crs:ParametricDarks="+2"
   crs:ParametricLights="+12"
   crs:ParametricHighlights="-34"
   crs:ParametricShadowSplit="25"
   crs:ParametricMidtoneSplit="50"
   crs:ParametricHighlightSplit="75"
   crs:Sharpness="26"
   crs:SharpenRadius="+1.0"
   crs:SharpenDetail="25"
   crs:SharpenEdgeMasking="0"
   crs:LuminanceSmoothing="7"
   crs:LuminanceNoiseReductionDetail="50"
   crs:LuminanceNoiseReductionContrast="0"
   crs:ColorNoiseReduction="18"
   crs:ColorNoiseReductionDetail="50"
   crs:ColorNoiseReductionSmoothness="50"
   crs:HueAdjustmentRed="-8"
   crs:HueAdjustmentOrange="+7"
   crs:HueAdjustmentYellow="-2"
   crs:HueAdjustmentGreen="+20"
   crs:HueAdjustmentAqua="-32"
   crs:HueAdjustmentBlue="-29"
   crs:HueAdjustmentPurple="+25"
   crs:HueAdjustmentMagenta="-20"
   crs:SaturationAdjustmentRed="-27"
   crs:SaturationAdjustmentOrange="-1"
   crs:SaturationAdjustmentYellow="-18"
   crs:SaturationAdjustmentGreen="-6"
   crs:SaturationAdjustmentAqua="-64"
   crs:SaturationAdjustmentBlue="+33"
   crs:SaturationAdjustmentPurple="-9"
   crs:SaturationAdjustmentMagenta="+18"
   crs:LuminanceAdjustmentRed="+32"
   crs:LuminanceAdjustmentOrange="+35"
   crs:LuminanceAdjustmentYellow="+47"
   crs:LuminanceAdjustmentGreen="+67"
   crs:LuminanceAdjustmentAqua="+11"
   crs:LuminanceAdjustmentBlue="+1"
   crs:LuminanceAdjustmentPurple="+18"
   crs:LuminanceAdjustmentMagenta="+30"
   crs:SplitToningShadowHue="104"
   crs:SplitToningShadowSaturation="22"
   crs:SplitToningHighlightHue="74"
   crs:SplitToningHighlightSaturation="23"
   crs:SplitToningBalance="+52"
   crs:ColorGradeMidtoneHue="264"
   crs:ColorGradeMidtoneSat="20"
   crs:ColorGradeShadowLum="+8"
   crs:ColorGradeMidtoneLum="+42"
   crs:ColorGradeHighlightLum="+16"
   crs:ColorGradeBlending="46"
   crs:ColorGradeGlobalHue="0"
   crs:ColorGradeGlobalSat="0"
   crs:ColorGradeGlobalLum="0"
   crs:AutoLateralCA="1"
   crs:LensProfileEnable="1"
   crs:LensManualDistortionAmount="0"
   crs:VignetteAmount="0"
   crs:DefringePurpleAmount="0"
   crs:DefringePurpleHueLo="30"
   crs:DefringePurpleHueHi="70"
   crs:DefringeGreenAmount="0"
   crs:DefringeGreenHueLo="40"
   crs:DefringeGreenHueHi="60"
   crs:PerspectiveUpright="0"
   crs:PerspectiveVertical="0"
   crs:PerspectiveHorizontal="0"
   crs:PerspectiveRotate="0.0"
   crs:PerspectiveAspect="0"
   crs:PerspectiveScale="100"
   crs:PerspectiveX="0.00"
   crs:PerspectiveY="0.00"
   crs:GrainAmount="0"
   crs:PostCropVignetteAmount="0"
   crs:ShadowTint="0"
   crs:RedHue="0"
   crs:RedSaturation="0"
   crs:GreenHue="0"
   crs:GreenSaturation="0"
   crs:BlueHue="0"
   crs:BlueSaturation="0"
   crs:HDREditMode="0"
   crs:CurveRefineSaturation="100"
   crs:ConvertToGrayscale="False"
   crs:OverrideLookVignette="False"
   crs:ToneCurveName2012="Custom"
   crs:CameraProfile="Embedded"
   crs:CameraProfileDigest="D6AF5AEA62557FCE88BC099788BBD3CC"
   crs:LensProfileSetup="Custom"
   crs:HasSettings="True"
   crs:HasCrop="False"
   crs:AlreadyApplied="False"
   photoshop:SidecarForExtension="WEBP"
   photoshop:EmbeddedXMPDigest="00000000000000000000000000000000"
   xmp:MetadataDate="2026-08-07T10:39:52-06:00">
   <xmpMM:History>
    <rdf:Seq>
     <rdf:li
      stEvt:action="saved"
      stEvt:instanceID="xmp.iid:4c7cba5f-2414-4be7-943b-b830874d990c"
      stEvt:when="2026-08-07T10:39:52-06:00"
      stEvt:softwareAgent="Adobe Lightroom 9.4.1 (Macintosh)"
      stEvt:changed="/metadata"/>
    </rdf:Seq>
   </xmpMM:History>
   <crs:ToneCurvePV2012>
    <rdf:Seq>
     <rdf:li>0, 0</rdf:li>
     <rdf:li>42, 49</rdf:li>
     <rdf:li>118, 128</rdf:li>
     <rdf:li>188, 202</rdf:li>
     <rdf:li>255, 255</rdf:li>
    </rdf:Seq>
   </crs:ToneCurvePV2012>
   <crs:ToneCurvePV2012Red>
    <rdf:Seq>
     <rdf:li>0, 29</rdf:li>
     <rdf:li>49, 45</rdf:li>
     <rdf:li>99, 87</rdf:li>
     <rdf:li>124, 123</rdf:li>
     <rdf:li>207, 218</rdf:li>
     <rdf:li>255, 255</rdf:li>
    </rdf:Seq>
   </crs:ToneCurvePV2012Red>
   <crs:ToneCurvePV2012Green>
    <rdf:Seq>
     <rdf:li>0, 20</rdf:li>
     <rdf:li>52, 45</rdf:li>
     <rdf:li>125, 124</rdf:li>
     <rdf:li>199, 198</rdf:li>
     <rdf:li>255, 255</rdf:li>
    </rdf:Seq>
   </crs:ToneCurvePV2012Green>
   <crs:ToneCurvePV2012Blue>
    <rdf:Seq>
     <rdf:li>0, 35</rdf:li>
     <rdf:li>44, 48</rdf:li>
     <rdf:li>75, 79</rdf:li>
     <rdf:li>171, 199</rdf:li>
     <rdf:li>255, 238</rdf:li>
    </rdf:Seq>
   </crs:ToneCurvePV2012Blue>
   <crs:PointColors>
    <rdf:Seq>
     <rdf:li>-1.000000, -1.000000, -1.000000, -1.000000, -1.000000, -1.000000, -1.000000, -1.000000, -1.000000, -1.000000, -1.000000, -1.000000, -1.000000, -1.000000, -1.000000, -1.000000, -1.000000, -1.000000, -1.000000</rdf:li>
    </rdf:Seq>
   </crs:PointColors>
   <crs:ColorVariance>
    <rdf:Seq>
     <rdf:li>-50.000000</rdf:li>
    </rdf:Seq>
   </crs:ColorVariance>
  </rdf:Description>
 </rdf:RDF>
</x:xmpmeta>
