MEDIA/IMAGES/studio-b-instrument-room-view-02.xmp
<x:xmpmeta xmlns:x="adobe:ns:meta/" x:xmptk="Adobe XMP Core 7.0-c000 1.000000, 0000/00/00-00:00:00        ">
 <rdf:RDF xmlns:rdf="http://www.w3.org/1999/02/22-rdf-syntax-ns#">
  <rdf:Description rdf:about=""
    xmlns:exif="http://ns.adobe.com/exif/1.0/"
    xmlns:tiff="http://ns.adobe.com/tiff/1.0/"
    xmlns:xmpMM="http://ns.adobe.com/xap/1.0/mm/"
    xmlns:stEvt="http://ns.adobe.com/xap/1.0/sType/ResourceEvent#"
    xmlns:dc="http://purl.org/dc/elements/1.1/"
    xmlns:crs="http://ns.adobe.com/camera-raw-settings/1.0/"
    xmlns:photoshop="http://ns.adobe.com/photoshop/1.0/"
    xmlns:xmp="http://ns.adobe.com/xap/1.0/"
   exif:ExifVersion="0231"
   exif:PixelXDimension="2000"
   exif:PixelYDimension="1125"
   tiff:Orientation="1"
   tiff:ImageWidth="2000"
   tiff:ImageLength="1125"
   xmpMM:DocumentID="48BBF8AE98DE5D0D2091BF5F2857FDFF"
   xmpMM:OriginalDocumentID="48BBF8AE98DE5D0D2091BF5F2857FDFF"
   xmpMM:InstanceID="xmp.iid:768b1f45-34f1-49b9-a013-9a68d31d2936"
   dc:format="image/webp"
   crs:Version="18.4"
   crs:ProcessVersion="15.4"
   crs:WhiteBalance="Custom"
   crs:IncrementalTemperature="+10"
   crs:IncrementalTint="+10"
   crs:Exposure2012="-0.06"
   crs:Contrast2012="-51"
   crs:Highlights2012="-100"
   crs:Shadows2012="+90"
   crs:Whites2012="-100"
   crs:Blacks2012="+42"
   crs:Texture="+24"
   crs:Clarity2012="+47"
   crs:Dehaze="-13"
   crs:Vibrance="+32"
   crs:Saturation="-18"
   crs:ParametricShadows="0"
   crs:ParametricDarks="+3"
   crs:ParametricLights="+17"
   crs:ParametricHighlights="-48"
   crs:ParametricShadowSplit="25"
   crs:ParametricMidtoneSplit="50"
   crs:ParametricHighlightSplit="75"
   crs:Sharpness="37"
   crs:SharpenRadius="+1.0"
   crs:SharpenDetail="25"
   crs:SharpenEdgeMasking="0"
   crs:LuminanceSmoothing="10"
   crs:LuminanceNoiseReductionDetail="50"
   crs:LuminanceNoiseReductionContrast="0"
   crs:ColorNoiseReduction="25"
   crs:ColorNoiseReductionDetail="50"
   crs:ColorNoiseReductionSmoothness="50"
   crs:HueAdjustmentRed="-11"
   crs:HueAdjustmentOrange="+10"
   crs:HueAdjustmentYellow="-3"
   crs:HueAdjustmentGreen="+29"
   crs:HueAdjustmentAqua="-45"
   crs:HueAdjustmentBlue="-41"
   crs:HueAdjustmentPurple="+35"
   crs:HueAdjustmentMagenta="-29"
   crs:SaturationAdjustmentRed="-38"
   crs:SaturationAdjustmentOrange="-1"
   crs:SaturationAdjustmentYellow="-25"
   crs:SaturationAdjustmentGreen="-9"
   crs:SaturationAdjustmentAqua="-91"
   crs:SaturationAdjustmentBlue="+47"
   crs:SaturationAdjustmentPurple="-13"
   crs:SaturationAdjustmentMagenta="+26"
   crs:LuminanceAdjustmentRed="+45"
   crs:LuminanceAdjustmentOrange="+50"
   crs:LuminanceAdjustmentYellow="+67"
   crs:LuminanceAdjustmentGreen="+95"
   crs:LuminanceAdjustmentAqua="+15"
   crs:LuminanceAdjustmentBlue="+2"
   crs:LuminanceAdjustmentPurple="+25"
   crs:LuminanceAdjustmentMagenta="+43"
   crs:SplitToningShadowHue="104"
   crs:SplitToningShadowSaturation="32"
   crs:SplitToningHighlightHue="74"
   crs:SplitToningHighlightSaturation="33"
   crs:SplitToningBalance="+52"
   crs:ColorGradeMidtoneHue="264"
   crs:ColorGradeMidtoneSat="28"
   crs:ColorGradeShadowLum="+12"
   crs:ColorGradeMidtoneLum="+60"
   crs:ColorGradeHighlightLum="+23"
   crs:ColorGradeBlending="46"
   crs:ColorGradeGlobalHue="0"
   crs:ColorGradeGlobalSat="0"
   crs:ColorGradeGlobalLum="0"
   crs:AutoLateralCA="1"
   crs:LensProfileEnable="1"
   crs:LensManualDistortionAmount="0"
   crs:VignetteAmount="0"
   crs:DefringePurpleAmount="0"
   crs:DefringePurpleHueLo="30"
   crs:DefringePurpleHueHi="70"
   crs:DefringeGreenAmount="0"
   crs:DefringeGreenHueLo="40"
   crs:DefringeGreenHueHi="60"
   crs:PerspectiveUpright="0"
   crs:PerspectiveVertical="0"
   crs:PerspectiveHorizontal="0"
   crs:PerspectiveRotate="0.0"
   crs:PerspectiveAspect="0"
   crs:PerspectiveScale="100"
   crs:PerspectiveX="0.00"
   crs:PerspectiveY="0.00"
   crs:GrainAmount="0"
   crs:PostCropVignetteAmount="0"
   crs:ShadowTint="0"
   crs:RedHue="0"
   crs:RedSaturation="0"
   crs:GreenHue="0"
   crs:GreenSaturation="0"
   crs:BlueHue="0"
   crs:BlueSaturation="0"
   crs:HDREditMode="0"
   crs:CurveRefineSaturation="100"
   crs:ConvertToGrayscale="False"
   crs:OverrideLookVignette="False"
   crs:ToneCurveName2012="Custom"
   crs:CameraProfile="Embedded"
   crs:CameraProfileDigest="D6AF5AEA62557FCE88BC099788BBD3CC"
   crs:LensProfileSetup="Custom"
   crs:HasSettings="True"
   crs:HasCrop="False"
   crs:AlreadyApplied="False"
   photoshop:SidecarForExtension="WEBP"
   photoshop:EmbeddedXMPDigest="00000000000000000000000000000000"
   xmp:MetadataDate="2026-08-07T10:37:32-06:00">
   <xmpMM:History>
    <rdf:Seq>
     <rdf:li
      stEvt:action="saved"
      stEvt:instanceID="xmp.iid:768b1f45-34f1-49b9-a013-9a68d31d2936"
      stEvt:when="2026-08-07T10:37:32-06:00"
      stEvt:softwareAgent="Adobe Lightroom 9.4.1 (Macintosh)"
      stEvt:changed="/metadata"/>
    </rdf:Seq>
   </xmpMM:History>
   <crs:ToneCurvePV2012>
    <rdf:Seq>
     <rdf:li>0, 0</rdf:li>
     <rdf:li>42, 52</rdf:li>
     <rdf:li>118, 132</rdf:li>
     <rdf:li>188, 208</rdf:li>
     <rdf:li>255, 255</rdf:li>
    </rdf:Seq>
   </crs:ToneCurvePV2012>
   <crs:ToneCurvePV2012Red>
    <rdf:Seq>
     <rdf:li>0, 41</rdf:li>
     <rdf:li>49, 43</rdf:li>
     <rdf:li>99, 82</rdf:li>
     <rdf:li>124, 122</rdf:li>
     <rdf:li>207, 222</rdf:li>
     <rdf:li>255, 255</rdf:li>
    </rdf:Seq>
   </crs:ToneCurvePV2012Red>
   <crs:ToneCurvePV2012Green>
    <rdf:Seq>
     <rdf:li>0, 28</rdf:li>
     <rdf:li>52, 42</rdf:li>
     <rdf:li>125, 123</rdf:li>
     <rdf:li>199, 197</rdf:li>
     <rdf:li>255, 255</rdf:li>
    </rdf:Seq>
   </crs:ToneCurvePV2012Green>
   <crs:ToneCurvePV2012Blue>
    <rdf:Seq>
     <rdf:li>0, 50</rdf:li>
     <rdf:li>44, 49</rdf:li>
     <rdf:li>75, 80</rdf:li>
     <rdf:li>171, 211</rdf:li>
     <rdf:li>255, 231</rdf:li>
    </rdf:Seq>
   </crs:ToneCurvePV2012Blue>
   <crs:PointColors>
    <rdf:Seq>
     <rdf:li>-1.000000, -1.000000, -1.000000, -1.000000, -1.000000, -1.000000, -1.000000, -1.000000, -1.000000, -1.000000, -1.000000, -1.000000, -1.000000, -1.000000, -1.000000, -1.000000, -1.000000, -1.000000, -1.000000</rdf:li>
    </rdf:Seq>
   </crs:PointColors>
   <crs:ColorVariance>
    <rdf:Seq>
     <rdf:li>-50.000000</rdf:li>
    </rdf:Seq>
   </crs:ColorVariance>
  </rdf:Description>
 </rdf:RDF>
</x:xmpmeta>
