MEDIA/IMAGES/studio-b-drum-recording-setup-view-01.xmp
<x:xmpmeta xmlns:x="adobe:ns:meta/" x:xmptk="Adobe XMP Core 7.0-c000 1.000000, 0000/00/00-00:00:00        ">
 <rdf:RDF xmlns:rdf="http://www.w3.org/1999/02/22-rdf-syntax-ns#">
  <rdf:Description rdf:about=""
    xmlns:exif="http://ns.adobe.com/exif/1.0/"
    xmlns:tiff="http://ns.adobe.com/tiff/1.0/"
    xmlns:xmpMM="http://ns.adobe.com/xap/1.0/mm/"
    xmlns:stEvt="http://ns.adobe.com/xap/1.0/sType/ResourceEvent#"
    xmlns:dc="http://purl.org/dc/elements/1.1/"
    xmlns:crs="http://ns.adobe.com/camera-raw-settings/1.0/"
    xmlns:photoshop="http://ns.adobe.com/photoshop/1.0/"
    xmlns:xmp="http://ns.adobe.com/xap/1.0/"
   exif:ExifVersion="0231"
   exif:PixelXDimension="2000"
   exif:PixelYDimension="1127"
   tiff:Orientation="1"
   tiff:ImageWidth="2000"
   tiff:ImageLength="1127"
   xmpMM:DocumentID="89B1ECDAE1A5259A7A7B9FA9D4CC4BD2"
   xmpMM:OriginalDocumentID="89B1ECDAE1A5259A7A7B9FA9D4CC4BD2"
   xmpMM:InstanceID="xmp.iid:3746c667-51dd-46a9-8eff-00f045723710"
   dc:format="image/webp"
   crs:Version="18.4"
   crs:ProcessVersion="15.4"
   crs:WhiteBalance="Custom"
   crs:IncrementalTemperature="-12"
   crs:IncrementalTint="+19"
   crs:Exposure2012="+0.40"
   crs:Contrast2012="+1"
   crs:Highlights2012="-4"
   crs:Shadows2012="+25"
   crs:Whites2012="+17"
   crs:Blacks2012="-11"
   crs:Texture="-25"
   crs:Clarity2012="-2"
   crs:Dehaze="-22"
   crs:Vibrance="-8"
   crs:Saturation="-1"
   crs:ParametricShadows="+8"
   crs:ParametricDarks="-4"
   crs:ParametricLights="-5"
   crs:ParametricHighlights="+20"
   crs:ParametricShadowSplit="25"
   crs:ParametricMidtoneSplit="50"
   crs:ParametricHighlightSplit="75"
   crs:Sharpness="13"
   crs:SharpenRadius="+1.0"
   crs:SharpenDetail="25"
   crs:SharpenEdgeMasking="0"
   crs:LuminanceSmoothing="0"
   crs:ColorNoiseReduction="18"
   crs:ColorNoiseReductionDetail="50"
   crs:ColorNoiseReductionSmoothness="50"
   crs:HueAdjustmentRed="+25"
   crs:HueAdjustmentOrange="-16"
   crs:HueAdjustmentYellow="-8"
   crs:HueAdjustmentGreen="0"
   crs:HueAdjustmentAqua="0"
   crs:HueAdjustmentBlue="+27"
   crs:HueAdjustmentPurple="+24"
   crs:HueAdjustmentMagenta="+1"
   crs:SaturationAdjustmentRed="+24"
   crs:SaturationAdjustmentOrange="-11"
   crs:SaturationAdjustmentYellow="-1"
   crs:SaturationAdjustmentGreen="-1"
   crs:SaturationAdjustmentAqua="+1"
   crs:SaturationAdjustmentBlue="+19"
   crs:SaturationAdjustmentPurple="+3"
   crs:SaturationAdjustmentMagenta="0"
   crs:LuminanceAdjustmentRed="+37"
   crs:LuminanceAdjustmentOrange="-3"
   crs:LuminanceAdjustmentYellow="-4"
   crs:LuminanceAdjustmentGreen="0"
   crs:LuminanceAdjustmentAqua="0"
   crs:LuminanceAdjustmentBlue="+9"
   crs:LuminanceAdjustmentPurple="-3"
   crs:LuminanceAdjustmentMagenta="0"
   crs:SplitToningShadowHue="313"
   crs:SplitToningShadowSaturation="32"
   crs:SplitToningHighlightHue="47"
   crs:SplitToningHighlightSaturation="16"
   crs:SplitToningBalance="+69"
   crs:ColorGradeMidtoneHue="208"
   crs:ColorGradeMidtoneSat="38"
   crs:ColorGradeShadowLum="-57"
   crs:ColorGradeMidtoneLum="-21"
   crs:ColorGradeHighlightLum="-15"
   crs:ColorGradeBlending="100"
   crs:ColorGradeGlobalHue="0"
   crs:ColorGradeGlobalSat="0"
   crs:ColorGradeGlobalLum="0"
   crs:AutoLateralCA="1"
   crs:LensProfileEnable="0"
   crs:LensManualDistortionAmount="0"
   crs:VignetteAmount="0"
   crs:DefringePurpleAmount="0"
   crs:DefringePurpleHueLo="30"
   crs:DefringePurpleHueHi="70"
   crs:DefringeGreenAmount="0"
   crs:DefringeGreenHueLo="40"
   crs:DefringeGreenHueHi="60"
   crs:PerspectiveUpright="0"
   crs:PerspectiveVertical="0"
   crs:PerspectiveHorizontal="0"
   crs:PerspectiveRotate="0.0"
   crs:PerspectiveAspect="0"
   crs:PerspectiveScale="100"
   crs:PerspectiveX="0.00"
   crs:PerspectiveY="0.00"
   crs:GrainAmount="3"
   crs:GrainSize="25"
   crs:GrainFrequency="50"
   crs:PostCropVignetteAmount="0"
   crs:ShadowTint="0"
   crs:RedHue="0"
   crs:RedSaturation="0"
   crs:GreenHue="0"
   crs:GreenSaturation="0"
   crs:BlueHue="0"
   crs:BlueSaturation="0"
   crs:HDREditMode="0"
   crs:CurveRefineSaturation="100"
   crs:OverrideLookVignette="False"
   crs:ToneCurveName2012="Custom"
   crs:CameraProfile="Embedded"
   crs:CameraProfileDigest="D6AF5AEA62557FCE88BC099788BBD3CC"
   crs:GrainSeed="3320442089"
   crs:HasSettings="True"
   crs:HasCrop="False"
   crs:AlreadyApplied="False"
   photoshop:SidecarForExtension="WEBP"
   photoshop:EmbeddedXMPDigest="00000000000000000000000000000000"
   xmp:MetadataDate="2026-08-07T10:37:08-06:00">
   <xmpMM:History>
    <rdf:Seq>
     <rdf:li
      stEvt:action="saved"
      stEvt:instanceID="xmp.iid:3746c667-51dd-46a9-8eff-00f045723710"
      stEvt:when="2026-08-07T10:37:08-06:00"
      stEvt:softwareAgent="Adobe Lightroom 9.4.1 (Macintosh)"
      stEvt:changed="/metadata"/>
    </rdf:Seq>
   </xmpMM:History>
   <crs:ToneCurvePV2012>
    <rdf:Seq>
     <rdf:li>0, 0</rdf:li>
     <rdf:li>83, 84</rdf:li>
     <rdf:li>194, 201</rdf:li>
     <rdf:li>255, 255</rdf:li>
    </rdf:Seq>
   </crs:ToneCurvePV2012>
   <crs:ToneCurvePV2012Red>
    <rdf:Seq>
     <rdf:li>0, 0</rdf:li>
     <rdf:li>61, 50</rdf:li>
     <rdf:li>130, 127</rdf:li>
     <rdf:li>207, 218</rdf:li>
     <rdf:li>255, 255</rdf:li>
    </rdf:Seq>
   </crs:ToneCurvePV2012Red>
   <crs:ToneCurvePV2012Green>
    <rdf:Seq>
     <rdf:li>0, 0</rdf:li>
     <rdf:li>59, 54</rdf:li>
     <rdf:li>130, 131</rdf:li>
     <rdf:li>200, 207</rdf:li>
     <rdf:li>255, 255</rdf:li>
    </rdf:Seq>
   </crs:ToneCurvePV2012Green>
   <crs:ToneCurvePV2012Blue>
    <rdf:Seq>
     <rdf:li>0, 15</rdf:li>
     <rdf:li>26, 42</rdf:li>
     <rdf:li>84, 71</rdf:li>
     <rdf:li>111, 98</rdf:li>
     <rdf:li>156, 138</rdf:li>
     <rdf:li>203, 188</rdf:li>
     <rdf:li>255, 239</rdf:li>
    </rdf:Seq>
   </crs:ToneCurvePV2012Blue>
   <crs:PointColors>
    <rdf:Seq>
     <rdf:li>-1.000000, -1.000000, -1.000000, -1.000000, -1.000000, -1.000000, -1.000000, -1.000000, -1.000000, -1.000000, -1.000000, -1.000000, -1.000000, -1.000000, -1.000000, -1.000000, -1.000000, -1.000000, -1.000000</rdf:li>
    </rdf:Seq>
   </crs:PointColors>
   <crs:ColorVariance>
    <rdf:Seq>
     <rdf:li>-50.000000</rdf:li>
    </rdf:Seq>
   </crs:ColorVariance>
   <crs:Look>
    <rdf:Description
     crs:Name="Modern 08"
     crs:Amount="0.68"
     crs:Cluster="Adobe"
     crs:UUID="DA1C3775662D6B6A75F8BC2CEEB3724A"
     crs:SupportsMonochrome="false">
    <crs:Group>
     <rdf:Alt>
      <rdf:li xml:lang="x-default">Modern</rdf:li>
     </rdf:Alt>
    </crs:Group>
    <crs:Parameters
     crs:Version="18.4"
     crs:ProcessVersion="15.4"
     crs:ConvertToGrayscale="False"
     crs:LookTable="E1095149FDB39D7A057BAB208837E2E1"
     crs:RGBTable="6133E9CB13FA32712A5AC579D110EC44"
     crs:RGBTableAmount="0.75"/>
    </rdf:Description>
   </crs:Look>
  </rdf:Description>
 </rdf:RDF>
</x:xmpmeta>
