MEDIA/IMAGES/studio-b-drum-recording-setup.xmp
<x:xmpmeta xmlns:x="adobe:ns:meta/" x:xmptk="Adobe XMP Core 7.0-c000 1.000000, 0000/00/00-00:00:00        ">
 <rdf:RDF xmlns:rdf="http://www.w3.org/1999/02/22-rdf-syntax-ns#">
  <rdf:Description rdf:about=""
    xmlns:exif="http://ns.adobe.com/exif/1.0/"
    xmlns:tiff="http://ns.adobe.com/tiff/1.0/"
    xmlns:xmpMM="http://ns.adobe.com/xap/1.0/mm/"
    xmlns:stEvt="http://ns.adobe.com/xap/1.0/sType/ResourceEvent#"
    xmlns:dc="http://purl.org/dc/elements/1.1/"
    xmlns:crs="http://ns.adobe.com/camera-raw-settings/1.0/"
    xmlns:photoshop="http://ns.adobe.com/photoshop/1.0/"
    xmlns:xmp="http://ns.adobe.com/xap/1.0/"
   exif:ExifVersion="0231"
   exif:PixelXDimension="2000"
   exif:PixelYDimension="1127"
   tiff:Orientation="1"
   tiff:ImageWidth="2000"
   tiff:ImageLength="1127"
   xmpMM:DocumentID="C85FA801EE731ED790DC73C8A31B9067"
   xmpMM:OriginalDocumentID="C85FA801EE731ED790DC73C8A31B9067"
   xmpMM:InstanceID="xmp.iid:3a93a4c5-04af-4f90-997a-3ce32d8f8f54"
   dc:format="image/webp"
   crs:Version="18.4"
   crs:ProcessVersion="15.4"
   crs:WhiteBalance="As Shot"
   crs:IncrementalTemperature="0"
   crs:IncrementalTint="0"
   crs:Exposure2012="+0.36"
   crs:Contrast2012="+41"
   crs:Highlights2012="-7"
   crs:Shadows2012="-67"
   crs:Whites2012="-24"
   crs:Blacks2012="-14"
   crs:Texture="0"
   crs:Clarity2012="0"
   crs:Dehaze="0"
   crs:Vibrance="-14"
   crs:Saturation="-14"
   crs:ParametricShadows="+8"
   crs:ParametricDarks="-4"
   crs:ParametricLights="-5"
   crs:ParametricHighlights="-23"
   crs:ParametricShadowSplit="25"
   crs:ParametricMidtoneSplit="50"
   crs:ParametricHighlightSplit="75"
   crs:Sharpness="14"
   crs:SharpenRadius="+1.0"
   crs:SharpenDetail="25"
   crs:SharpenEdgeMasking="0"
   crs:LuminanceSmoothing="0"
   crs:ColorNoiseReduction="19"
   crs:ColorNoiseReductionDetail="50"
   crs:ColorNoiseReductionSmoothness="50"
   crs:GrayMixerRed="-11"
   crs:GrayMixerOrange="-21"
   crs:GrayMixerYellow="-25"
   crs:GrayMixerGreen="-28"
   crs:GrayMixerAqua="-16"
   crs:GrayMixerBlue="+17"
   crs:GrayMixerPurple="-25"
   crs:GrayMixerMagenta="+6"
   crs:HueAdjustmentRed="0"
   crs:HueAdjustmentOrange="0"
   crs:HueAdjustmentYellow="0"
   crs:HueAdjustmentGreen="0"
   crs:HueAdjustmentAqua="0"
   crs:HueAdjustmentBlue="0"
   crs:HueAdjustmentPurple="0"
   crs:HueAdjustmentMagenta="0"
   crs:SaturationAdjustmentRed="0"
   crs:SaturationAdjustmentOrange="0"
   crs:SaturationAdjustmentYellow="0"
   crs:SaturationAdjustmentGreen="0"
   crs:SaturationAdjustmentAqua="0"
   crs:SaturationAdjustmentBlue="0"
   crs:SaturationAdjustmentPurple="0"
   crs:SaturationAdjustmentMagenta="0"
   crs:LuminanceAdjustmentRed="0"
   crs:LuminanceAdjustmentOrange="0"
   crs:LuminanceAdjustmentYellow="0"
   crs:LuminanceAdjustmentGreen="0"
   crs:LuminanceAdjustmentAqua="0"
   crs:LuminanceAdjustmentBlue="0"
   crs:LuminanceAdjustmentPurple="0"
   crs:LuminanceAdjustmentMagenta="0"
   crs:SplitToningShadowHue="0"
   crs:SplitToningShadowSaturation="0"
   crs:SplitToningHighlightHue="0"
   crs:SplitToningHighlightSaturation="0"
   crs:SplitToningBalance="0"
   crs:ColorGradeMidtoneHue="0"
   crs:ColorGradeMidtoneSat="0"
   crs:ColorGradeShadowLum="0"
   crs:ColorGradeMidtoneLum="0"
   crs:ColorGradeHighlightLum="0"
   crs:ColorGradeBlending="50"
   crs:ColorGradeGlobalHue="0"
   crs:ColorGradeGlobalSat="0"
   crs:ColorGradeGlobalLum="0"
   crs:AutoLateralCA="1"
   crs:LensProfileEnable="0"
   crs:LensManualDistortionAmount="0"
   crs:VignetteAmount="0"
   crs:DefringePurpleAmount="0"
   crs:DefringePurpleHueLo="30"
   crs:DefringePurpleHueHi="70"
   crs:DefringeGreenAmount="0"
   crs:DefringeGreenHueLo="40"
   crs:DefringeGreenHueHi="60"
   crs:PerspectiveUpright="0"
   crs:PerspectiveVertical="0"
   crs:PerspectiveHorizontal="0"
   crs:PerspectiveRotate="0.0"
   crs:PerspectiveAspect="0"
   crs:PerspectiveScale="100"
   crs:PerspectiveX="0.00"
   crs:PerspectiveY="0.00"
   crs:GrainAmount="0"
   crs:PostCropVignetteAmount="0"
   crs:ShadowTint="0"
   crs:RedHue="0"
   crs:RedSaturation="0"
   crs:GreenHue="0"
   crs:GreenSaturation="0"
   crs:BlueHue="0"
   crs:BlueSaturation="0"
   crs:HDREditMode="0"
   crs:OverrideLookVignette="False"
   crs:ToneCurveName2012="Linear"
   crs:CameraProfile="Embedded"
   crs:CameraProfileDigest="D6AF5AEA62557FCE88BC099788BBD3CC"
   crs:LensProfileSetup="Custom"
   crs:HasSettings="True"
   crs:HasCrop="False"
   crs:AlreadyApplied="False"
   photoshop:SidecarForExtension="WEBP"
   photoshop:EmbeddedXMPDigest="00000000000000000000000000000000"
   xmp:MetadataDate="2026-08-07T10:36:19-06:00">
   <xmpMM:History>
    <rdf:Seq>
     <rdf:li
      stEvt:action="saved"
      stEvt:instanceID="xmp.iid:3a93a4c5-04af-4f90-997a-3ce32d8f8f54"
      stEvt:when="2026-08-07T10:36:19-06:00"
      stEvt:softwareAgent="Adobe Lightroom 9.4.1 (Macintosh)"
      stEvt:changed="/metadata"/>
    </rdf:Seq>
   </xmpMM:History>
   <crs:ToneCurvePV2012>
    <rdf:Seq>
     <rdf:li>0, 0</rdf:li>
     <rdf:li>255, 255</rdf:li>
    </rdf:Seq>
   </crs:ToneCurvePV2012>
   <crs:ToneCurvePV2012Red>
    <rdf:Seq>
     <rdf:li>0, 0</rdf:li>
     <rdf:li>255, 255</rdf:li>
    </rdf:Seq>
   </crs:ToneCurvePV2012Red>
   <crs:ToneCurvePV2012Green>
    <rdf:Seq>
     <rdf:li>0, 0</rdf:li>
     <rdf:li>255, 255</rdf:li>
    </rdf:Seq>
   </crs:ToneCurvePV2012Green>
   <crs:ToneCurvePV2012Blue>
    <rdf:Seq>
     <rdf:li>0, 0</rdf:li>
     <rdf:li>255, 255</rdf:li>
    </rdf:Seq>
   </crs:ToneCurvePV2012Blue>
   <crs:PointColors>
    <rdf:Seq>
     <rdf:li>-1.000000, -1.000000, -1.000000, -1.000000, -1.000000, -1.000000, -1.000000, -1.000000, -1.000000, -1.000000, -1.000000, -1.000000, -1.000000, -1.000000, -1.000000, -1.000000, -1.000000, -1.000000, -1.000000</rdf:li>
    </rdf:Seq>
   </crs:PointColors>
   <crs:ColorVariance>
    <rdf:Seq>
     <rdf:li>-50.000000</rdf:li>
    </rdf:Seq>
   </crs:ColorVariance>
   <crs:Look>
    <rdf:Description
     crs:Name="Modern 08"
     crs:Amount="0.78"
     crs:Cluster="Adobe"
     crs:UUID="DA1C3775662D6B6A75F8BC2CEEB3724A"
     crs:SupportsMonochrome="false">
    <crs:Group>
     <rdf:Alt>
      <rdf:li xml:lang="x-default">Modern</rdf:li>
     </rdf:Alt>
    </crs:Group>
    <crs:Parameters
     crs:Version="18.4"
     crs:ProcessVersion="15.4"
     crs:ConvertToGrayscale="False"
     crs:LookTable="E1095149FDB39D7A057BAB208837E2E1"
     crs:RGBTable="6133E9CB13FA32712A5AC579D110EC44"
     crs:RGBTableAmount="0.75"/>
    </rdf:Description>
   </crs:Look>
   <crs:Preset>
    <rdf:Description
     crs:Name="bring the edge"
     crs:Amount="0.68"
     crs:UUID="43BA2C77BB894A649A197A235F4CE273"
     crs:LookAmount="1.15">
    <crs:Group>
     <rdf:Alt>
      <rdf:li xml:lang="x-default">bridget's custums</rdf:li>
     </rdf:Alt>
    </crs:Group>
    <crs:Parameters>
     <rdf:Description
      crs:Version="18.4"
      crs:ProcessVersion="15.4"
      crs:WhiteBalance="As Shot"
      crs:Exposure2012="+0.53"
      crs:Contrast2012="+61"
      crs:Highlights2012="-10"
      crs:Shadows2012="-99"
      crs:Whites2012="-35"
      crs:Blacks2012="-20"
      crs:Texture="0"
      crs:Clarity2012="0"
      crs:Dehaze="0"
      crs:Vibrance="-20"
      crs:Saturation="-20"
      crs:ParametricShadows="+12"
      crs:ParametricDarks="-6"
      crs:ParametricLights="-7"
      crs:ParametricHighlights="-34"
      crs:ParametricShadowSplit="25"
      crs:ParametricMidtoneSplit="50"
      crs:ParametricHighlightSplit="75"
      crs:Sharpness="20"
      crs:SharpenRadius="+1.0"
      crs:SharpenDetail="25"
      crs:SharpenEdgeMasking="0"
      crs:LuminanceSmoothing="0"
      crs:ColorNoiseReduction="28"
      crs:ColorNoiseReductionDetail="50"
      crs:ColorNoiseReductionSmoothness="50"
      crs:HueAdjustmentRed="0"
      crs:HueAdjustmentOrange="0"
      crs:HueAdjustmentYellow="0"
      crs:HueAdjustmentGreen="0"
      crs:HueAdjustmentAqua="0"
      crs:HueAdjustmentBlue="0"
      crs:HueAdjustmentPurple="0"
      crs:HueAdjustmentMagenta="0"
      crs:SaturationAdjustmentRed="0"
      crs:SaturationAdjustmentOrange="0"
      crs:SaturationAdjustmentYellow="0"
      crs:SaturationAdjustmentGreen="0"
      crs:SaturationAdjustmentAqua="0"
      crs:SaturationAdjustmentBlue="0"
      crs:SaturationAdjustmentPurple="0"
      crs:SaturationAdjustmentMagenta="0"
      crs:LuminanceAdjustmentRed="0"
      crs:LuminanceAdjustmentOrange="0"
      crs:LuminanceAdjustmentYellow="0"
      crs:LuminanceAdjustmentGreen="0"
      crs:LuminanceAdjustmentAqua="0"
      crs:LuminanceAdjustmentBlue="0"
      crs:LuminanceAdjustmentPurple="0"
      crs:LuminanceAdjustmentMagenta="0"
      crs:SplitToningShadowHue="0"
      crs:SplitToningShadowSaturation="0"
      crs:SplitToningHighlightHue="0"
      crs:SplitToningHighlightSaturation="0"
      crs:SplitToningBalance="0"
      crs:ColorGradeMidtoneHue="0"
      crs:ColorGradeMidtoneSat="0"
      crs:ColorGradeShadowLum="0"
      crs:ColorGradeMidtoneLum="0"
      crs:ColorGradeHighlightLum="0"
      crs:ColorGradeBlending="50"
      crs:ColorGradeGlobalHue="0"
      crs:ColorGradeGlobalSat="0"
      crs:ColorGradeGlobalLum="0"
      crs:AutoLateralCA="1"
      crs:LensProfileEnable="0"
      crs:DefringePurpleAmount="0"
      crs:DefringePurpleHueLo="30"
      crs:DefringePurpleHueHi="70"
      crs:DefringeGreenAmount="0"
      crs:DefringeGreenHueLo="40"
      crs:DefringeGreenHueHi="60"
      crs:GrainAmount="0"
      crs:PostCropVignetteAmount="0"
      crs:ShadowTint="0"
      crs:RedHue="0"
      crs:RedSaturation="0"
      crs:GreenHue="0"
      crs:GreenSaturation="0"
      crs:BlueHue="0"
      crs:BlueSaturation="0"
      crs:HDREditMode="0"
      crs:OverrideLookVignette="False"
      crs:ToneCurveName2012="Linear">
     <crs:ToneCurvePV2012>
      <rdf:Seq>
       <rdf:li>0, 0</rdf:li>
       <rdf:li>255, 255</rdf:li>
      </rdf:Seq>
     </crs:ToneCurvePV2012>
     <crs:ToneCurvePV2012Red>
      <rdf:Seq>
       <rdf:li>0, 0</rdf:li>
       <rdf:li>255, 255</rdf:li>
      </rdf:Seq>
     </crs:ToneCurvePV2012Red>
     <crs:ToneCurvePV2012Green>
      <rdf:Seq>
       <rdf:li>0, 0</rdf:li>
       <rdf:li>255, 255</rdf:li>
      </rdf:Seq>
     </crs:ToneCurvePV2012Green>
     <crs:ToneCurvePV2012Blue>
      <rdf:Seq>
       <rdf:li>0, 0</rdf:li>
       <rdf:li>255, 255</rdf:li>
      </rdf:Seq>
     </crs:ToneCurvePV2012Blue>
     </rdf:Description>
    </crs:Parameters>
    </rdf:Description>
   </crs:Preset>
  </rdf:Description>
 </rdf:RDF>
</x:xmpmeta>
