MEDIA/IMAGES/vohn-on-air-studio-portrait.xmp
<x:xmpmeta xmlns:x="adobe:ns:meta/" x:xmptk="Adobe XMP Core 7.0-c000 1.000000, 0000/00/00-00:00:00        ">
 <rdf:RDF xmlns:rdf="http://www.w3.org/1999/02/22-rdf-syntax-ns#">
  <rdf:Description rdf:about=""
    xmlns:exif="http://ns.adobe.com/exif/1.0/"
    xmlns:tiff="http://ns.adobe.com/tiff/1.0/"
    xmlns:xmpMM="http://ns.adobe.com/xap/1.0/mm/"
    xmlns:stEvt="http://ns.adobe.com/xap/1.0/sType/ResourceEvent#"
    xmlns:dc="http://purl.org/dc/elements/1.1/"
    xmlns:crs="http://ns.adobe.com/camera-raw-settings/1.0/"
    xmlns:photoshop="http://ns.adobe.com/photoshop/1.0/"
    xmlns:xmp="http://ns.adobe.com/xap/1.0/"
   exif:ExifVersion="0231"
   exif:PixelXDimension="1920"
   exif:PixelYDimension="1282"
   tiff:Orientation="1"
   tiff:ImageWidth="1920"
   tiff:ImageLength="1282"
   xmpMM:DocumentID="8C198DBDDBB353FA9DCE06BD5C84A096"
   xmpMM:OriginalDocumentID="8C198DBDDBB353FA9DCE06BD5C84A096"
   xmpMM:InstanceID="xmp.iid:b92edd8f-e160-466c-9339-754961602667"
   dc:format="image/webp"
   crs:Version="18.4"
   crs:ProcessVersion="15.4"
   crs:WhiteBalance="Custom"
   crs:IncrementalTemperature="0"
   crs:IncrementalTint="+24"
   crs:Exposure2012="+1.84"
   crs:Contrast2012="-31"
   crs:Highlights2012="-84"
   crs:Shadows2012="+31"
   crs:Whites2012="+10"
   crs:Blacks2012="-13"
   crs:Texture="-31"
   crs:Clarity2012="-2"
   crs:Dehaze="-27"
   crs:Vibrance="-10"
   crs:Saturation="-1"
   crs:ParametricShadows="+10"
   crs:ParametricDarks="-5"
   crs:ParametricLights="-6"
   crs:ParametricHighlights="+25"
   crs:ParametricShadowSplit="25"
   crs:ParametricMidtoneSplit="50"
   crs:ParametricHighlightSplit="75"
   crs:Sharpness="16"
   crs:SharpenRadius="+1.0"
   crs:SharpenDetail="25"
   crs:SharpenEdgeMasking="0"
   crs:LuminanceSmoothing="0"
   crs:ColorNoiseReduction="23"
   crs:ColorNoiseReductionDetail="50"
   crs:ColorNoiseReductionSmoothness="50"
   crs:HueAdjustmentRed="+36"
   crs:HueAdjustmentOrange="-20"
   crs:HueAdjustmentYellow="-10"
   crs:HueAdjustmentGreen="+33"
   crs:HueAdjustmentAqua="+35"
   crs:HueAdjustmentBlue="+34"
   crs:HueAdjustmentPurple="+30"
   crs:HueAdjustmentMagenta="+2"
   crs:SaturationAdjustmentRed="+6"
   crs:SaturationAdjustmentOrange="-14"
   crs:SaturationAdjustmentYellow="-58"
   crs:SaturationAdjustmentGreen="+43"
   crs:SaturationAdjustmentAqua="+2"
   crs:SaturationAdjustmentBlue="+24"
   crs:SaturationAdjustmentPurple="+4"
   crs:SaturationAdjustmentMagenta="0"
   crs:LuminanceAdjustmentRed="+46"
   crs:LuminanceAdjustmentOrange="-3"
   crs:LuminanceAdjustmentYellow="-5"
   crs:LuminanceAdjustmentGreen="+42"
   crs:LuminanceAdjustmentAqua="-1"
   crs:LuminanceAdjustmentBlue="+11"
   crs:LuminanceAdjustmentPurple="-4"
   crs:LuminanceAdjustmentMagenta="0"
   crs:SplitToningShadowHue="313"
   crs:SplitToningShadowSaturation="39"
   crs:SplitToningHighlightHue="47"
   crs:SplitToningHighlightSaturation="20"
   crs:SplitToningBalance="+69"
   crs:ColorGradeMidtoneHue="208"
   crs:ColorGradeMidtoneSat="47"
   crs:ColorGradeShadowLum="-71"
   crs:ColorGradeMidtoneLum="-26"
   crs:ColorGradeHighlightLum="-18"
   crs:ColorGradeBlending="100"
   crs:ColorGradeGlobalHue="0"
   crs:ColorGradeGlobalSat="0"
   crs:ColorGradeGlobalLum="0"
   crs:AutoLateralCA="1"
   crs:LensProfileEnable="0"
   crs:LensManualDistortionAmount="0"
   crs:VignetteAmount="0"
   crs:DefringePurpleAmount="0"
   crs:DefringePurpleHueLo="30"
   crs:DefringePurpleHueHi="70"
   crs:DefringeGreenAmount="0"
   crs:DefringeGreenHueLo="40"
   crs:DefringeGreenHueHi="60"
   crs:PerspectiveUpright="0"
   crs:PerspectiveVertical="0"
   crs:PerspectiveHorizontal="0"
   crs:PerspectiveRotate="0.0"
   crs:PerspectiveAspect="0"
   crs:PerspectiveScale="100"
   crs:PerspectiveX="0.00"
   crs:PerspectiveY="0.00"
   crs:GrainAmount="4"
   crs:GrainSize="25"
   crs:GrainFrequency="50"
   crs:PostCropVignetteAmount="0"
   crs:ShadowTint="0"
   crs:RedHue="0"
   crs:RedSaturation="0"
   crs:GreenHue="0"
   crs:GreenSaturation="0"
   crs:BlueHue="0"
   crs:BlueSaturation="0"
   crs:HDREditMode="0"
   crs:CurveRefineSaturation="100"
   crs:OverrideLookVignette="False"
   crs:ToneCurveName2012="Custom"
   crs:CameraProfile="Embedded"
   crs:CameraProfileDigest="D6AF5AEA62557FCE88BC099788BBD3CC"
   crs:GrainSeed="3320728031"
   crs:HasSettings="True"
   crs:HasCrop="False"
   crs:AlreadyApplied="False"
   photoshop:SidecarForExtension="WEBP"
   photoshop:EmbeddedXMPDigest="00000000000000000000000000000000"
   xmp:MetadataDate="2026-08-07T21:48:37-06:00">
   <xmpMM:History>
    <rdf:Seq>
     <rdf:li
      stEvt:action="saved"
      stEvt:instanceID="xmp.iid:b92edd8f-e160-466c-9339-754961602667"
      stEvt:when="2026-08-07T21:48:37-06:00"
      stEvt:softwareAgent="Adobe Lightroom 9.4.1 (Macintosh)"
      stEvt:changed="/metadata"/>
    </rdf:Seq>
   </xmpMM:History>
   <crs:ToneCurvePV2012>
    <rdf:Seq>
     <rdf:li>0, 0</rdf:li>
     <rdf:li>83, 84</rdf:li>
     <rdf:li>194, 202</rdf:li>
     <rdf:li>255, 255</rdf:li>
    </rdf:Seq>
   </crs:ToneCurvePV2012>
   <crs:ToneCurvePV2012Red>
    <rdf:Seq>
     <rdf:li>0, 0</rdf:li>
     <rdf:li>61, 47</rdf:li>
     <rdf:li>130, 126</rdf:li>
     <rdf:li>207, 220</rdf:li>
     <rdf:li>255, 255</rdf:li>
    </rdf:Seq>
   </crs:ToneCurvePV2012Red>
   <crs:ToneCurvePV2012Green>
    <rdf:Seq>
     <rdf:li>0, 0</rdf:li>
     <rdf:li>59, 53</rdf:li>
     <rdf:li>130, 131</rdf:li>
     <rdf:li>200, 209</rdf:li>
     <rdf:li>255, 255</rdf:li>
    </rdf:Seq>
   </crs:ToneCurvePV2012Green>
   <crs:ToneCurvePV2012Blue>
    <rdf:Seq>
     <rdf:li>0, 19</rdf:li>
     <rdf:li>26, 46</rdf:li>
     <rdf:li>84, 68</rdf:li>
     <rdf:li>111, 95</rdf:li>
     <rdf:li>156, 133</rdf:li>
     <rdf:li>203, 184</rdf:li>
     <rdf:li>255, 235</rdf:li>
    </rdf:Seq>
   </crs:ToneCurvePV2012Blue>
   <crs:PointColors>
    <rdf:Seq>
     <rdf:li>-1.000000, -1.000000, -1.000000, -1.000000, -1.000000, -1.000000, -1.000000, -1.000000, -1.000000, -1.000000, -1.000000, -1.000000, -1.000000, -1.000000, -1.000000, -1.000000, -1.000000, -1.000000, -1.000000</rdf:li>
    </rdf:Seq>
   </crs:PointColors>
   <crs:ColorVariance>
    <rdf:Seq>
     <rdf:li>-50.000000</rdf:li>
    </rdf:Seq>
   </crs:ColorVariance>
   <crs:Look>
    <rdf:Description
     crs:Name="Modern 08"
     crs:Amount="0.84"
     crs:Cluster="Adobe"
     crs:UUID="DA1C3775662D6B6A75F8BC2CEEB3724A"
     crs:SupportsMonochrome="false">
    <crs:Group>
     <rdf:Alt>
      <rdf:li xml:lang="x-default">Modern</rdf:li>
     </rdf:Alt>
    </crs:Group>
    <crs:Parameters
     crs:Version="18.4"
     crs:ProcessVersion="15.4"
     crs:ConvertToGrayscale="False"
     crs:LookTable="E1095149FDB39D7A057BAB208837E2E1"
     crs:RGBTable="6133E9CB13FA32712A5AC579D110EC44"
     crs:RGBTableAmount="0.75"/>
    </rdf:Description>
   </crs:Look>
  </rdf:Description>
 </rdf:RDF>
</x:xmpmeta>
